X:340
T:Durness March 
C:Joe Buchanan's Scottish Tome - Page 122.0
I:122 0
C:Donald MacFarlane
R:March
Z:Carl Allison
L:1/8
M:6/8
K:D
a | f>ef a>fd | edB A2 B | A>Bd f>ef | a>gf e2 a |
f>ef a>fd | e>dB A2 d | c>aa g>ec | d3 d :|
g | a3 f>ed | e>dB A2 B | A>Bd f>ef | a>gf e2 g |
a3 f>ed | e>dB A2 d | c>aa g>ec | d3 d :|
A | d>fe f2 A | e>dB A2 B | A>Bd f>ef | a>gf e2 A |
d>fe f2 A | e>dB A2 d | c>aa g>ec | d3 d2 :|
f/g/ | a>ga a>fd | e>dB A2 B | A>Bd f>ef | a>gf e>fg |
a>ga a>fd | e>dB A2 d | c>aa g>ec | d2 e>fg |
a>ga a>fd | edB A2 B | ABd f>ef | a>gf e>fg |
a3 f3 | e>dB A2 d | c>aa g>ec | d3 d2 |]

